client/src/resources/socials/telegram.svg

<svg width="31" height="30" viewBox="0 0 31 30" fill="none" xmlns="http://www.w3.org/2000/svg">
<g clip-path="url(#clip0_1128_216)">
<path fill-rule="evenodd" clip-rule="evenodd" d="M15.5 0C7.21625 0 0.5 6.71625 0.5 15C0.5 23.2838 7.21625 30 15.5 30C23.7838 30 30.5 23.2838 30.5 15C30.5 6.71625 23.7838 0 15.5 0ZM22.4525 10.2013C22.2275 12.5725 21.25 18.3288 20.7537 20.985C20.5437 22.11 20.1287 22.4862 19.7288 22.5225C18.8575 22.6025 18.1963 21.9462 17.3525 21.3937C16.0325 20.5287 15.2863 19.99 14.005 19.145C12.5238 18.1688 13.4838 17.6325 14.3275 16.7563C14.5487 16.5262 18.3863 13.035 18.4613 12.7188C18.47 12.6788 18.48 12.5312 18.3913 12.4538C18.3025 12.3763 18.1737 12.4025 18.0812 12.4237C17.9487 12.4538 15.84 13.8475 11.7537 16.605C11.155 17.0163 10.6125 17.2163 10.1263 17.2063C9.59125 17.195 8.56125 16.9037 7.795 16.6537C6.85625 16.3487 6.10875 16.1863 6.17375 15.6687C6.2075 15.3987 6.57875 15.1225 7.28875 14.84C11.6613 12.935 14.5775 11.6788 16.0363 11.0713C20.2025 9.33875 21.0675 9.0375 21.6325 9.0275C22.34 9.0175 22.51 9.60125 22.4525 10.2013Z" fill="white"/>
</g>
<defs>
<clipPath id="clip0_1128_216">
<rect width="30" height="30" fill="white" transform="translate(0.5)"/>
</clipPath>
</defs>
</svg>

<svg xmlns="http://www.w3.org/2000/svg" width="31" height="30" fill="none"><g clip-path="url(#a)"><path fill="#fff" fill-rule="evenodd" d="M15.5 0C7.216 0 .5 6.716.5 15s6.716 15 15 15 15-6.716 15-15-6.716-15-15-15m6.953 10.201c-.226 2.371-1.203 8.128-1.7 10.784-.21 1.125-.624 1.501-1.024 1.538-.871.08-1.533-.577-2.376-1.13-1.32-.864-2.067-1.403-3.348-2.248-1.481-.976-.521-1.512.322-2.389.222-.23 4.06-3.721 4.134-4.037.009-.04.019-.188-.07-.265-.088-.078-.217-.052-.31-.03q-.198.045-6.327 4.181-.898.616-1.628.601c-.535-.011-1.565-.302-2.331-.552-.939-.305-1.686-.468-1.621-.985q.05-.405 1.115-.829 6.559-2.857 8.747-3.769c4.166-1.732 5.031-2.033 5.596-2.043.708-.01.878.573.82 1.173" clip-rule="evenodd"/></g><defs><clipPath id="a"><path fill="#fff" d="M.5 0h30v30H.5z"/></clipPath></defs></svg>
